!!!!SEGMENT: pl-kk--kk-i-6--064-001_lilius-franciszek--missa-pro-defunctis-requiem-aeternam.krn
!!!cenid: 16xx:1060
!!!COM: Lilius, Franciszek
!!!COM-rismID: pe30020509
!!!CDT: ~1600-1657
!!!CNT: Polish
!!!OPR: Missa pro defunctis
!!!OTL: Requiem aeternam
!!!OMV: 001
!!!PDT:
!!!AGN: Sacred; Requiem
!!!YEC: Copyright 2022 Narodowy Instytut Fryderyka Chopina (https://polishscores.org)
!!!YEM: License CC-BY-4.0 (https://creativecommons.org/licenses/by/4.0)
!!!SMS-siglum: PL-Kk
!!!SMS-shelfmark: Kk.I.6
!!!SMS-shelfwork: 064-001 M
!!!SMS-variant:
!!!SMS-altvar:
!!!NIFC-rismSourceID: 1001135513
!!!NIFC-rismChildID: 1001136594
!!!NIFC-islandoraID: pl-kk:1634
!!!URL-pdf-islandora: https://repozytorium.nifc.pl/islandora/object/pl-kk%3A1634/datastream/PDF/view
!!!URL-scan: https://polish.musicsources.pl/pl/lokalizacje/galeria/rekopisy/6133 @EN{Scan on Polish Music Sources Website} @PL{Skany w portalu Dziedzictwo Muzyki Polskiej w otwartym dostępie}
!!!IIIF:
!!!ONB-nifc: UWAGA: C (skan 0088-0092), T (skan 0200-0206), B (skan 0313-0319) Części Mszy: 1. Requiem aeternam, 2. Kyrie, 3. Requiem aeternam, 4. Absolve Domine, 5. Dies irae, 6. Domine Jesu Christe, 7. Sanctus, 8. Agnus Dei, 9. Lux aeterna
!!!AIN: 1 bass 1 soprn 1 tenor
!!!key: F:lyd
**kern	**text	**kern	**text	**kern	**text
*group1	*	*group1	*	*group1	*
*part3	*	*part2	*	*part1	*
*staff3	*	*staff2	*	*staff1	*
*I"Baſsus.	*	*I"Tenor.	*	*I"Cantus.	*
*I'[B]	*	*I'[T]	*	*I'[S]	*
*Ibass	*	*Itenor	*	*Isoprn	*
*ICvox	*	*ICvox	*	*ICvox	*
*clefF4	*	*clefC4	*	*clefC4	*
*k[b-]	*	*k[b-]	*	*k[b-]	*
*F:lyd	*	*F:lyd	*	*F:lyd	*
*M2/1	*	*M2/1	*	*M2/1	*
*met(C)	*	*met(C)	*	*met(C)	*
=1-	=1-	=1-	=1-	=1-	=1-
*col	*	*	*	*	*
*lig	*	*	*	*	*
1FF	Re-	0ryy	.	0ryy	.
1GG	.	.	.	.	.
*Xlig	*	*	*	*	*
=2-	=2-	=2-	=2-	=2-	=2-
1FF	-qu-	0ryy	.	0ryy	.
!LO:TX:t=P:problem=kreska pseudotaktowa	!	!	!	!	!
1FF	-iem	.	.	.	.
*Xcol	*	*	*	*	*
=3	=3-	=3-	=3-	=3-	=3-
*	*	*	*	*lig	*
2r	.	1r	.	1F	Ae-
1F	ae-	.	.	.	.
.	.	0c	ae-	1G	.
2E\	.	.	.	.	.
*	*	*	*	*Xlig	*
=4-	=4-	=4-	=4-	=4-	=4-
2.F\	-ter-	.	.	1A	.
4E\	.	.	.	.	.
*	*	*	*	*lig	*
2.D/	.	1.d	-ter	1A	-ter-
4C/	.	.	.	.	.
=5-	=5-	=5-	=5-	=5-	=5-
2BB-/	.	.	.	1G	.
2C/	.	2e\	.	.	.
*	*	*	*	*Xlig	*
*	*	*	*	*lig	*
1FF	.	2f\	.	1F	.
.	.	2c\	nam	.	.
*	*	*	*	*Xlig	*
=6-	=6-	=6-	=6-	=6-	=6-
0C	.	1c	ae-	1G	.
*	*	*	*	*lig	*
.	.	2.c\	-ter-	1G	-nam
.	.	4B-\	.	.	.
=7-	=7-	=7-	=7-	=7-	=7-
2F\	nam	4A/	.	1F	.
.	.	4G/	.	.	.
1D	do-	1F	.	.	.
*	*	*	*	*Xlig	*
.	.	.	.	1A	do-
!LO:TX:b:t=P:problem=# below	!	!	!	!	!
2C#X/	.	2E/	.	.	.
=8-	=8-	=8-	=8-	=8-	=8-
*	*	*	*	*lig	*
2D\	na	1F	.	1A	-na
2F\	e-	.	.	.	.
1E	-is	1G	.	1G	.
*	*	*	*	*Xlig	*
*custos:D	*	*	*	*	*
!LO:LB:g=original	!	!	!	!	!
=9-	=9-	=9-	=9-	=9-	=9-
2.D/	Do-	4F/	-nam	1A	e-
.	.	4G/	.	.	.
.	.	4A/	.	.	.
4D/	-mi-	4B-/	.	.	.
2Cny/	-ne	2.c\	.	1A	-is
1AA/	do-	.	.	.	.
.	.	4B-\	.	.	.
=10-	=10-	=10-	=10-	=10-	=10-
*	*	*	*	*lig	*
.	.	1A	.	1c	.
2FF/	-na	.	.	.	.
!	!	!LO:LB:g=original	!	!	!
2AA/	e-	2r	.	1A	.
2AA/	-is	1F/	do-	.	.
*	*	*	*	*Xlig	*
=11-	=11-	=11-	=11-	=11-	=11-
*	*	*	*	*lig	*
2.C/	Do-	.	.	1G	.
.	.	2E/	-na	.	.
4BB-/	.	.	.	.	.
2.AA/	.	2F/	e-	1A	.
.	.	2F/	-is	.	.
4AA/	-mi-	.	.	.	.
*	*	*	*	*Xlig	*
=12-	=12-	=12-	=12-	=12-	=12-
*	*	*	*	*lig	*
2GG/	-ne	4G/	do-	1B-	.
.	.	4A/	.	.	.
1G	do-	4B-\	.	.	.
.	.	4c\	.	.	.
.	.	2.d\	.	1A	.
2F#X\	-na	.	.	.	.
.	.	4c\	.	.	.
*	*	*	*	*Xlig	*
=13-	=13-	=13-	=13-	=13-	=13-
2G\	e-	2B-\	.	1G	.
2E\	-is	2G/	-mi-	.	.
*	*	*	*	*custos:F	*
!	!	!	!	!LO:LB:g=original	!
*lig	*	*	*	*lig	*
1D	Do-	2.A/	-ne	1F	Do-
.	.	4B-\	.	.	.
=14-	=14-	=14-	=14-	=14-	=14-
*col	*	*	*	*	*
2.C/	.	1c	.	1G	.
*Xlig	*	*	*	*Xlig	*
4C/	-mi-	.	.	.	.
*Xcol	*	*	*	*	*
1FF	ne	2r	.	1A	.
.	.	2c\	et	.	.
=15-	=15-	=15-	=15-	=15-	=15-
1r	.	2B-\	lux	1G	-mi-
.	.	2c\	per-	.	.
*	*	*	*	*lig	*
1D	et	1.d	-pe-	1F	-ne
=16-	=16-	=16-	=16-	=16-	=16-
2BB-/	lux	.	.	1G	.
2C/	per-	4c\	.	.	.
.	.	4B-\	.	.	.
*	*	*	*	*Xlig	*
*custos:D	*	*	*	*	*
!LO:LB:g=original	!	!	!	!	!
2.D/	-pe-	2A\	.	1F	.
!	!	!LO:TX:a:t=P:problem=# above	!	!	!
!	!	!LO:N:acc=#	!	!	!
.	.	2Bn\	-tu-	.	.
4D/	-tu-	.	.	.	.
=17-	=17-	=17-	=17-	=17-	=17-
2C/	-a	1c	-a	1A	et
2Fny\	et	.	.	.	.
*	*	*	*	*lig	*
2D/	lux	2r	.	1A	lux
2D/	per-	2d\	et	.	.
=18-	=18-	=18-	=18-	=18-	=18-
*lig	*	*	*	*	*
1E-X	-pe-	2B\	lux	1G	.
.	.	2c\	per-	.	.
*	*	*custos:d	*	*	*
!	!	!LO:LB:g=original	!	!	!
*col	*	*	*	*Xlig	*
2.D\	.	2.d\	-pe-	1A	per-
*Xlig	*	*	*	*	*
4D\	.	4d\	-tu-	.	.
*Xcol	*	*	*	*	*
=19-	=19-	=19-	=19-	=19-	=19-
*	*	*	*	*lig	*
2GG/	-a	2B-\	-a	1G	-pe-
2.C/	lu-	2G/	lu-	.	.
.	.	2.c\	.	1A	.
4BB-/	-ce-	.	.	.	.
2AA/	-at	.	.	.	.
.	.	4c\	-ce-	.	.
*	*	*	*	*Xlig	*
=20-	=20-	=20-	=20-	=20-	=20-
1BB-	e-	2B-\	-at	1G	-tu-
.	.	2d\	e-	.	.
*	*	*	*	*lig	*
1C	.	2c\	-is	1G	-a
.	.	2.c\	lu-	.	.
=21-	=21-	=21-	=21-	=21-	=21-
2FF/	-is	.	.	1F	.
.	.	4B-\	-ce-	.	.
2.F\	lu-	2A\	-at	.	.
*	*	*	*	*Xlig	*
.	.	2c\	e-	1A	lu-
4Eny\	-ce-	.	.	.	.
2D\	-at	2d\	.	.	.
=22-	=22-	=22-	=22-	=22-	=22-
1E	e-	1c	is	1G	-ce-
*	*	*	*	*lig	*
2F\	.	2.c\	lu-	1A	at
4FF/	.	.	.	.	.
4GG/	.	4B-\	ce-	.	.
=23-	=23-	=23-	=23-	=23-	=23-
4AA/	.	2A/	-at	1c	.
4BB-/	.	.	.	.	.
2C/	.	2.G/	e-	.	.
*	*	*	*	*Xlig	*
*	*	*	*	*lig	*
*custos:D	*	*	*	*	*
!LO:LB:g=original	!	!	!	!	!
2D/	.	.	.	1A	.
.	.	4F/	.	.	.
2F\	.	1F/	.	.	.
=24-	=24-	=24-	=24-	=24-	=24-
1C	-is	.	.	1G	.
.	.	2E/	.	.	.
*	*	*	*	*Xlig	*
*	*	*	*	*lig	*
2r	.	2F/	-is	1A	.
2F\	et	2A/	et	.	.
=25-	=25-	=25-	=25-	=25-	=25-
2D\	lux	2F/	lux	1B-	.
2E\	per-	2G/	per-	.	.
*	*	*	*	*Xlig	*
*	*	*	*	*lig	*
4F\	-pe-	4A\	-pe-	1A	.
4G\	.	4B-\	.	.	.
4A\	.	4c\	.	.	.
4F\	.	4A\	.	.	.
*	*	*custos:B-	*	*	*
!	!	!LO:LB:g=original	!	!	!
=26-	=26-	=26-	=26-	=26-	=26-
2.G\	-tu-	2.B-\	.	1G	.
4G\	-a	4B-\	tu-	.	.
*	*	*	*	*Xlig	*
*	*	*	*	*custos:F	*
!	!	!	!	!LO:LB:g=original	!
*	*	*	*	*lig	*
2D/	lu-	2A/	-a	1F	e-
2.BB-/	-ce-	2.d\	lu-	.	.
=27-	=27-	=27-	=27-	=27-	=27-
.	.	.	.	1G	.
4AA/	.	4c\	-ce-	.	.
2GG/	-at	2B-\	-at	.	.
*	*	*	*	*Xlig	*
*	*	*	*	*lig	*
4FF/	e-	2A/	e-	1A	.
4GG/	.	.	.	.	.
4AA/	.	2F/	-is	.	.
4FF/	.	.	.	.	.
=28-	=28-	=28-	=28-	=28-	=28-
1C	.	2r	.	1G	.
*	*	*	*ij	*	*
.	.	2.c\	lu-	.	.
*lig	*	*	*	*Xlig	*
*	*	*	*	*lig	*
1D	.	.	.	1F	.
.	.	4c\	-ce-	.	.
.	.	2B-\	-at	.	.
=29-	=29-	=29-	=29-	=29-	=29-
1C	.	1c	e-	1G	.
*Xlig	*	*	*	*Xlig	*
0FF;>	-is	0A;<	-is	0F;>	-is
*	*	*	*Xij	*	*
=30||-	=30||-	=30||-	=30||-	=30||-	=30||-
*clefF4	*	*clefC4	*	*clefC4	*
*k[b-]	*	*k[b-]	*	*k[b-]	*
*M2/1	*	*M2/1	*	*M2/1	*
*met(C)	*	*met(C)	*	*met(C)	*
*	*	*	*	*lig	*
0r	.	00r	.	1F	Te
.	.	.	.	1G	.
*	*	*	*	*Xlig	*
=31-	=31-	=31-	=31-	=31-	=31-
*lig	*	*	*	*lig	*
1C	Te	.	.	1G	de-
1D	.	.	.	1F	.
*Xlig	*	*	*	*Xlig	*
=32-	=32-	=32-	=32-	=32-	=32-
*	*	*	*	*lig	*
1C	.	0r	.	1G	-cet
2.F\	de-	.	.	1A	.
4E\	.	.	.	.	.
*	*	*	*	*Xlig	*
=33-	=33-	=33-	=33-	=33-	=33-
2D/	.	1r	.	1A	hym-
2D/	cet	.	.	.	.
1AA	hym-	1c	Te	1A	-nus
=34-	=34-	=34-	=34-	=34-	=34-
1D	-nus	2d\	de-	1A	De-
.	.	2d\	-cet	.	.
4A\	De-	4e\	hy-	1A	-us
4G\	.	4e\	-mnus	.	.
4F\	.	2.f\	De-	.	.
4E\	.	.	.	.	.
=35-	=35-	=35-	=35-	=35-	=35-
2D\	.	.	.	1A	in
.	.	4e\	-us	.	.
2F\	-us	2d\	in	.	.
2.C/	in	1c	Sy-	1G	Sy-
4C/	Sy-	.	.	.	.
=36-	=36-	=36-	=36-	=36-	=36-
1F	-on	1c	-on	1A	-on
*	*	*	*	*custos:F	*
!	!	!LO:LB:g=original	!	!LO:LB:g=original	!
1D	et	2r	.	1F	et
.	.	2A/	et	.	.
=37-	=37-	=37-	=37-	=37-	=37-
1G	ti-	1B-	ti-	1G	ti-
2F\	-bi	4c\	-bi	1A	-bi
.	.	4A\	red-	.	.
2D/	red-	1d\	-de-	.	.
=38-	=38-	=38-	=38-	=38-	=38-
0AA	-de-	.	.	1A	red-
.	.	4c\	.	.	.
.	.	4B-\	.	.	.
.	.	1c	.	1A	-de-
!LO:LB:g=original	!	!	!	!	!
=39-	=39-	=39-	=39-	=39-	=39-
2D/	-tur	2d\	-tur	1A	-tur
1D	vo-	4D/	vo-	.	.
.	.	4E/	.	.	.
.	.	4F/	.	1A	vo-
.	.	4G/	.	.	.
4C/	.	2A/	.	.	.
!LO:TX:b:t=P:problem=# below	!	!	!	!	!
!LO:N:acc=#	!	!	!	!	!
4BBn/	.	.	.	.	.
=40-	=40-	=40-	=40-	=40-	=40-
2C/	.	1E	-tum	1A	-tum
2C/	-tum	.	.	.	.
1D	in	2D/	in	1A	in
.	.	2d\	Hie-	.	.
=41-	=41-	=41-	=41-	=41-	=41-
1GG	Hie-	4d\	.	1G	Hie-
.	.	4c\	.	.	.
.	.	4B-\	.	.	.
.	.	4A\	.	.	.
1.GG	-ru-	2.G/	-ru-	1B-	-ru-
.	.	4A/	.	.	.
=42-	=42-	=42-	=42-	=42-	=42-
.	.	2B-\	-ſa-	1G	-ſa-
2GG/	-ſa-	2G/	.	.	.
!	!	!LO:TX:a:t=P:problem=# above	!	!	!
1D	-lem	1F#X	-lem	1A	-lem
=43-	=43-	=43-	=43-	=43-	=43-
2r	.	0r	.	1F	ex-
2D/	ex-	.	.	.	.
2.C/	-au-	.	.	1G	-au-
4BB-y/	.	.	.	.	.
=44-	=44-	=44-	=44-	=44-	=44-
2AA/	.	2r	.	1A	.
2D/	-di	2d\	ex-	.	.
2F\	o-	2.c\	-au-	1A	-di
2.F\	-ra-	.	.	.	.
.	.	4B-\	-di	.	.
*	*	*custos:A	*	*	*
!	!	!LO:LB:g=original	!	!	!
=45-	=45-	=45-	=45-	=45-	=45-
.	.	2A/	o-	1A	o-
4E\	-ti-	.	.	.	.
2.D/	-o-	1Fny	-ra-	.	.
.	.	.	.	1A	-ra-
4D/	-nem	.	.	.	.
2AA/	me-	2E/	-tio-	.	.
=46-	=46-	=46-	=46-	=46-	=46-
2D/	-am	2.D/	.	1A	-tio-
1D	ad	.	.	.	.
.	.	4E/	.	.	.
.	.	4F/	.	1A	-nem
.	.	4G/	.	.	.
2D/	te	2A/	.	.	.
*custos:F	*	*	*	*	*
!LO:LB:g=original	!	!	!	!	!
=47-	=47-	=47-	=47-	=47-	=47-
2.F\	o-	1D	-nem	1A	me-
4E\	-mnis	.	.	.	.
2D/	ca-	2d\	me-	1A	-am
!LO:TX:b:t=P:problem=# below	!	!	!	!	!
2C#X/	-ro	1e\	.	.	.
*	*	*	*	*custos:A	*
!	!	!	!	!LO:LB:g=original	!
=48-	=48-	=48-	=48-	=48-	=48-
4D\	ve-	.	.	1A	ad
4E\	.	.	.	.	.
4F\	.	1d	.	.	.
4G\	.	.	.	.	.
2.A\	-ni-	.	.	1A	te
!	!	!LO:TX:a:t=P:problem=# above	!	!	!
.	.	2c#X\	.	.	.
4A\	-et	.	.	.	.
=49-	=49-	=49-	=49-	=49-	=49-
1D	ad	2d\	-am	1A	o-
.	.	1d	ad	.	.
1.D	te	.	.	1A	-mnis
.	.	2d\	te	.	.
=50-	=50-	=50-	=50-	=50-	=50-
.	.	2.f\	o-	1F	ca-
2D/	o-	.	.	.	.
.	.	4e\	.	.	.
*	*	*	*	*lig	*
2BB-/	.	2d\	-mnis	1G	-ro
2Cny/	-mnis	2cny\	ca-	.	.
=51-	=51-	=51-	=51-	=51-	=51-
2FF/	ca-	1c	-ro	1A	.
2FF/	-ro	.	.	.	.
*	*	*	*	*Xlig	*
1.C	ve-	1.c	ve-	1G	-ve-
=52-	=52-	=52-	=52-	=52-	=52-
.	.	.	.	1G	-ni-
2C/	-ni-	2c\	-ni-	.	.
1FF	-et	1A	-et	[>0F	-et
=53-	=53-	=53-	=53-	=53-	=53-
*	*ij	*	*ij	*	*
1.BB-	ad	2.B-\	ad	.	.
.	.	4B-\	.	.	.
.	.	2.d\	te	0F_>;>l	.
2BB-/	te	.	.	.	.
.	.	4c\	.	.	.
*	*	*custos:B-	*	*	*
!	!	!LO:LB:g=original	!	!	!
=54-	=54-	=54-	=54-	=54-	=54-
2.D/	o-	2B-\	o-	.	.
.	.	2A\	-mnis	.	.
4C/	-mnis	.	.	.	.
2BB-/	ca-	2B-\	ca-	0.F_>;>	.
2AA/	-ro	1c\	-ro	.	.
*custos:BB-	*	*	*	*	*
!LO:LB:g=original	!	!	!	!	!
=55-	=55-	=55-	=55-	=55-	=55-
2.BB-/	ve-	.	.	.	.
.	.	1B-	ve-	.	.
4BB-/	-ni-	.	.	.	.
[0FF;>l	-et	.	.	.	.
.	.	2A\	-ni-	.	.
=56-	=56-	=56-	=56-	=56-	=56-
!	!	!LO:SIC:v:s:t=0A	!	!	!
.	.	0B-;<	-et	0F];>	.
1FF]	.	.	.	.	.
*	*Xij	*	*Xij	*	*
=-	=-	=-	=-	=-	=-
*-	*-	*-	*-	*-	*-
!!!system-decoration: [(g1)]
!!!RDF**kern: l = terminal long
!!!RDF**kern: > = above
!!!RDF**kern: < = below
!!!ENC: Marta Opryszak
!!!END: 2021-10-27
!!!EED: Jędrzej Mróz
!!!EEV: 2021-12-21
